packages/tokens/icons/sort/size24Px.svg

<svg viewBox="0 0 24 24" fill="none" xmlns="http://www.w3.org/2000/svg" width="1em" height="1em"><path d="M11.6464 19.6464C11.8417 19.8417 12.1583 19.8417 12.3536 19.6464L17.1464 14.8536C17.4614 14.5386 17.2383 14 16.7929 14L7.20711 14C6.76165 14 6.53857 14.5386 6.85355 14.8536L11.6464 19.6464Z" fill="currentColor"/><path d="M11.6464 4.35355C11.8417 4.15829 12.1583 4.15829 12.3536 4.35355L17.1464 9.14645C17.4614 9.46143 17.2383 10 16.7929 10L7.20711 10C6.76165 10 6.53857 9.46143 6.85355 9.14645L11.6464 4.35355Z" fill="currentColor"/></svg>

<svg xmlns="http://www.w3.org/2000/svg" fill="none" viewBox="0 0 24 24" width="1em" height="1em"><path fill="currentColor" d="M11.646 19.646a.5.5 0 0 0 .708 0l4.792-4.792a.5.5 0 0 0-.353-.854H7.207a.5.5 0 0 0-.353.854l4.792 4.792Zm0-15.292a.5.5 0 0 1 .708 0l4.792 4.792a.5.5 0 0 1-.353.854H7.207a.5.5 0 0 1-.353-.854l4.792-4.792Z"/></svg>
